round/svg/tag_faces.svg

<svg xmlns="http://www.w3.org/2000/svg" width="24" height="24"><path fill="none" d="M0 0h24v24H0V0z"/><g fill="currentColor"><path d="M12.01 2C6.49 2 2.02 6.48 2.02 12s4.47 10 9.99 10c5.53 0 10.01-4.48 10.01-10S17.54 2 12.01 2zm.01 18c-4.42 0-8-3.58-8-8s3.58-8 8-8 8 3.58 8 8-3.58 8-8 8zm3.5-9c.83 0 1.5-.67 1.5-1.5S16.35 8 15.52 8s-1.5.67-1.5 1.5.67 1.5 1.5 1.5zm-7 0c.83 0 1.5-.67 1.5-1.5S9.35 8 8.52 8s-1.5.67-1.5 1.5.67 1.5 1.5 1.5zm3.5 6.5c2.03 0 3.8-1.11 4.75-2.75a.503.503 0 0 0-.44-.75H7.71c-.38 0-.63.42-.44.75a5.489 5.489 0 0 0 4.75 2.75z"/></g></svg>

<?xml version="1.0" encoding="utf-8"?>
<!-- Generator: Adobe Illustrator 19.1.0, SVG Export Plug-In . SVG Version: 6.00 Build 0)  -->
<svg version="1.1" xmlns="http://www.w3.org/2000/svg" xmlns:xlink="http://www.w3.org/1999/xlink" x="0px" y="0px" width="24px"
	 height="24px" viewBox="0 0 24 24" enable-background="new 0 0 24 24" xml:space="preserve">
<g id="Bounding_Boxes">
	<g id="ui_x5F_spec_x5F_header_copy_2">
	</g>
	<path fill="none" d="M0,0h24v24H0V0z"/>
</g>
<g id="Rounded" fill="currentColor">
	<g id="ui_x5F_spec_x5F_header_copy_6">
	</g>
	<path d="M12.01,2C6.49,2,2.02,6.48,2.02,12s4.47,10,9.99,10c5.53,0,10.01-4.48,10.01-10S17.54,2,12.01,2z M12.02,20
		c-4.42,0-8-3.58-8-8s3.58-8,8-8s8,3.58,8,8S16.44,20,12.02,20z M15.52,11c0.83,0,1.5-0.67,1.5-1.5S16.35,8,15.52,8
		s-1.5,0.67-1.5,1.5S14.69,11,15.52,11z M8.52,11c0.83,0,1.5-0.67,1.5-1.5S9.35,8,8.52,8s-1.5,0.67-1.5,1.5S7.69,11,8.52,11z
		 M12.02,17.5c2.03,0,3.8-1.11,4.75-2.75c0.19-0.33-0.05-0.75-0.44-0.75H7.71c-0.38,0-0.63,0.42-0.44,0.75
		C8.22,16.39,9.99,17.5,12.02,17.5z"/>
</g>
</svg>
